X: 13
T: Bill Sullivan's
C: Terry Teahan
Z: NfldWhistler
S: https://thesession.org/tunes/481#setting48260
R: polka
M: 2/4
L: 1/8
K: Amaj
|:a2 a>f|ec a>f|ec a>f|ec BA|
a2 a>f|ec a>f|ec Bc|BA A2:|
|:ce ec|df fd|ce ef/e/|dc BA|
ce ec|df fd|ec Bc|BA A2:|

